X:1
T:Hymnus “Creator alme siderum”
T:From École d'orgue 1862 (original in B minor)
T:J.-N. Lemmens (1823-1881)
T:Transcription for a smaller organ: Jakub Rajcani (2014)
T:Transcription for a smaller organ: Jakub Rajcani (2014)
Z:Transcription for a smaller organ: Jakub Rajcani (2014)
%%score { ( 1 5 ) | ( 2 3 4 ) }
L:1/8
Q:1/4=130
M:4/4
K:Eb
V:1 treble nm="Organ" snm="Org."
V:5 treble 
V:2 bass 
V:3 bass 
V:4 bass 
V:1
 z | z8 | z8 | z8 | z4 z2"^Choral" G2 | E2 G2 B2 B2 | c3 A B4- | B4 z4 | z8 | z8 | z8 | %11
 z4 z2"^Choral" B2 | c2"^?" c2 B2 G2 | A3 F G4- | G8 | z8 | z8 | z8 | z8 | z2"^Choral" B2 A2 F2 | %20
 G2 A2 G3 F | E8 | z8 | z8 | z8 | z2"^Choral" E2 G2 A2 | B2 G2 A3 F | G8- | G8- | G8- | %30
 !fermata!G8 |] %31
V:2
 x | x8 | x8 | x8 | x8 | x8 | x8 | x8 | x8 | x8 | x8 | x8 | x8 | x8 | x8 | x8 | x8 | x8 | x8 | x8 | %20
 x8 | x8 | x8 | x8 | x8 | x8 | x8 | x8 | x8 | x8 | D3 C !fermata!=B,4 |] %31
V:3
 G, | C,3 E, G,3 D, | G,,3 =B,, C,3 C | F,3 B, E,3 A, | D,2 A,2- A,G,/>F,/ E,D, | %5
 C,A,, E,2- E,D, G,2- | G,F,/>G,/ A,C B,3 A, | G,3 E, B,3 B,, | E,3 G, A,3 A,, | _D,3 C, F,3 F,, | %10
 B,,3 A,, _D,3 _C, | B,,3 D, E,3 G, | A,3 D, G,3 C, | F,3 B,, E,3 C, | G,,3 F, =E,3 _E, | %15
 D,3 G, C,3 C | F,3 E, D,3 =A, | G,3 G,, C,3 D, | E,3 G, A,3 D, | G,3 C, F,3 B,, | E,3 D, G,3 G,, | %21
 C,3 A,, _D,3 G, | C,3 F, B,,3 C, | =A,,3 E, D,3 _D, | C,3 C F,3 G, | A,3 A,, E,3 D, | %26
 G,3 C, F,3 B,, | E,3 C, G,3 F, | =E,3 _E, D,3 _D, | C,3 E, G,3 C, | G,,8 |] %31
V:4
 x | z G, C2- C=B,/>=A,/ B,2- | B,D F2- FE/>D/ E2- | EA D2- DG C2- | CF/>E/ DC =B,3 G, | %5
 C3 B, F3[I:staff -1] E | x8 | x8 | x8 | x8 | x8 | x8 | x8 | x8 | x8 | x8 | x8 | x8 | x8 | x8 | %20
 x8 |[I:staff +1] =B,G, C2- C_B,/>A,/ B,2- | B,G, A,2- A,_G,/>F,/ G,2- | G,F, C2- CB, F2- | %24
 FE/>D/ E2- EA, _D2- | DC/>B,/ C2- CB, F2- | FE/>D/ E2- EC D2- | D_D C2- C=B,/>=A,/ B,2- | %28
 B,G, C2- C=B, F2- | F=E [C_E]2- [CE][=B,D]/>[=A,C]/ [B,D][C-E] | C=B,/>=A,/ B,E, !fermata!D,4 |] %31
V:5
 x | x8 | x8 | x8 | x8 | x8 | A2 E2- ED/>C/ D2- | DB, E2- ED A2- | AG _d2- dc/>B/ c2- | %9
 cF B2- BA/>G/ A2- | A_D _G2- GF/>E/ F2- | FD A2- AG/>F/ G2- | GE F2- FE/>D/ E2- | %13
 EC D2- DC/>=B,/ C2- | C=B,/>=A,/ B,2- B,G, C2- | C=B, F2- F=E B2- | B=A/>G/ A2- A_G c2- | %17
 cB/>=A/ B2- BE _A2- | AG/>F/ G2- GC F2- | FE/>D/ E2- ED/>C/ D2- | D_D C3 =B,/>=A,/ B,2 | x8 | x8 | %23
 x8 | x8 | x8 | x8 | x8 | x8 | x8 | x8 |] %31

